icon-themes/breeze_svg/cmd/32/animationmode.svg

<svg viewBox="0 0 32 32" xmlns="http://www.w3.org/2000/svg"><path d="m16 4-4.5 9h-7.5l6 6-1.5 9 6.5-3.900391v-1.167968l-5.1582031 3.095703 1.2285151-7.371094-4.6562495-4.65625h5.7031255l3.882812-7.7636719 3.880859 7.7636719h5.705079l-1 1h1.414062l2-2h-7.5zm3 0v1h9v-1zm1 3v1h8v-1zm3 3v1h5v-1zm1.4375 6.125-5.111328 5.111328-3.28711 3.285156v3.603516h3.603516l8.396484-8.398438zm-2.048828 3.490234 2.162109 2.160157-3.175781 3.175781v-.675781l-1.011719.021484h-1.037109v-1.035156-.585938l1.441406-1.439453zm-4.074219 4.074219v1.621094h1.035156.990235l.021484.652344-1.080078 1.082031h-1.441406l-.71875-.720703v-1.441407z" fill="#4d4d4d"/></svg>

<svg xmlns="http://www.w3.org/2000/svg" viewBox="0 0 32 32">
 <path 
     style="fill:#4d4d4d" 
     d="M 16 4 L 11.5 13 L 4 13 L 10 19 L 8.5 28 L 15 24.099609 L 15 22.931641 L 9.8417969 26.027344 L 11.070312 18.65625 L 6.4140625 14 L 12.117188 14 L 16 6.2363281 L 19.880859 14 L 25.585938 14 L 24.585938 15 L 26 15 L 28 13 L 20.5 13 L 16 4 z M 19 4 L 19 5 L 28 5 L 28 4 L 19 4 z M 20 7 L 20 8 L 28 8 L 28 7 L 20 7 z M 23 10 L 23 11 L 28 11 L 28 10 L 23 10 z M 24.4375 16.125 L 19.326172 21.236328 L 16.039062 24.521484 L 16.039062 28.125 L 19.642578 28.125 L 28.039062 19.726562 L 24.4375 16.125 z M 22.388672 19.615234 L 24.550781 21.775391 L 21.375 24.951172 L 21.375 24.275391 L 20.363281 24.296875 L 19.326172 24.296875 L 19.326172 23.261719 L 19.326172 22.675781 L 20.767578 21.236328 L 22.388672 19.615234 z M 18.314453 23.689453 L 18.314453 25.310547 L 19.349609 25.310547 L 20.339844 25.310547 L 20.361328 25.962891 L 19.28125 27.044922 L 17.839844 27.044922 L 17.121094 26.324219 L 17.121094 24.882812 L 18.314453 23.689453 z "
     />
</svg>
